X:709
T:Appelby Election Hornpipe. BF13.028
M:4/4
L:1/8
Q:180
S:J.Lishman()MS,c1825,Lakes,Browne Coll.
R:Hornpipe
O:England
A:Lakes
Z:vmp.Cherri Graebe.
K:D major
dB|AFDA, DA,FA,|EA,GA, BABc|dcdA  FdFD|E2[C2E2][C2E2]dB|!
AFDA, DA,FA,|EA,GA BABc|dBBG|FDEC|D2D2D2:|!
|:AG|FADF AFdF|GBEG BGed|cecf gfga|gfed dcBA|!
FADF GBEG|FADE CEA,G|FADc dfec|d2d2d2:||
